resources/haticons/SVG/uber.svg

<!-- Generated by IcoMoon.io -->
<svg version="1.1" xmlns="http://www.w3.org/2000/svg" width="24" height="24" viewBox="0 0 24 24">
<title>uber</title>
<path d="M12 24c-5.925 0-10.8-4.875-11.25-11.1 0.075 0 0.15 0.075 0.3 0.075h7.050c0.15 0 0.225 0 0.3-0.075v1.65c0 0.525 0.45 0.975 0.975 0.975h5.175c0.525 0 0.975-0.45 0.975-0.975v-5.55c0-0.525-0.45-0.975-0.975-0.975h-5.175c-0.525 0-0.975 0.45-0.975 0.975v1.65c-0.075 0-0.225-0.075-0.3-0.075h-7.050c-0.075 0-0.15 0-0.225 0.075 0.525-5.925 5.325-10.65 11.175-10.65 6.225 0 11.25 5.4 11.25 12s-5.025 12-11.25 12z"></path>
</svg>

<svg xmlns="http://www.w3.org/2000/svg" width="24" height="24"><path d="M12 24C6.075 24 1.2 19.125.75 12.9c.075 0 .15.075.3.075H8.1c.15 0 .225 0 .3-.075v1.65c0 .525.45.975.975.975h5.175c.525 0 .975-.45.975-.975V9a.993.993 0 0 0-.975-.975H9.375A.993.993 0 0 0 8.4 9v1.65c-.075 0-.225-.075-.3-.075H1.05c-.075 0-.15 0-.225.075C1.35 4.725 6.15 0 12 0c6.225 0 11.25 5.4 11.25 12S18.225 24 12 24z"/></svg>
